picto/lift.svg

<svg class="color-immutable" width="24" height="24" viewBox="0 0 24 24" fill="none" xmlns="http://www.w3.org/2000/svg"><path d="M0 22.5V1.5C0 0.675 0.675 0 1.5 0H22.5C23.325 0 24 0.675 24 1.5V22.5C24 23.325 23.325 24 22.5 24H1.5C0.675 24 0 23.325 0 22.5Z" fill="#2D327D"/><path d="M12.232 5.625V3.396L13.155 4.404V3.727L12 2.572L10.845 3.727V4.404L11.769 3.396V5.625H12.232Z" fill="white"/><path d="M11.769 18.375V20.603L10.845 19.595V20.273L12 21.428L13.155 20.273V19.595L12.232 20.603V18.375H11.769Z" fill="white"/><path d="M17.925 6.075H6.07501V17.925H17.925V6.075ZM17.175 17.175H6.82501V6.825H17.175V17.175Z" fill="white"/><path d="M18.75 3H21V21H18.75V3Z" fill="white"/><path d="M3 3H5.25V21H3V3Z" fill="white"/><path d="M10.334 9.015C10.765 9.015 11.115 8.665 11.115 8.234C11.115 7.802 10.765 7.453 10.334 7.453C9.90298 7.453 9.55298 7.803 9.55298 8.234C9.55298 8.664 9.90298 9.015 10.334 9.015Z" fill="white"/><path d="M8.87497 13.006C9.03697 13.006 9.16797 12.875 9.16797 12.713V10.467H9.36297V16.484C9.36297 16.699 9.53797 16.874 9.75397 16.874C9.96997 16.874 10.145 16.699 10.145 16.484V13.006H10.438V16.484C10.438 16.699 10.613 16.874 10.829 16.874C11.045 16.874 11.22 16.699 11.22 16.484V10.467H11.415V12.713C11.415 12.874 11.546 13.006 11.708 13.006C11.87 13.006 12.001 12.875 12.001 12.713V10.076C12.001 9.645 11.651 9.295 11.22 9.295H9.36297C8.93197 9.295 8.58197 9.645 8.58197 10.076V12.713C8.58197 12.875 8.71297 13.006 8.87497 13.006Z" fill="white"/></svg>

<svg class="color-immutable" width="24" height="24" viewBox="0 0 24 24" fill="none" xmlns="http://www.w3.org/2000/svg"><g clip-path="url(#a)"><path d="M0 22.5v-21C0 .675.675 0 1.5 0h21c.825 0 1.5.675 1.5 1.5v21c0 .825-.675 1.5-1.5 1.5h-21C.675 24 0 23.325 0 22.5Z" fill="#2D327D"/><path d="M12.232 5.625V3.396l.923 1.008v-.677L12 2.572l-1.155 1.155v.677l.924-1.008v2.229h.463ZM11.769 18.375v2.228l-.924-1.008v.678L12 21.428l1.155-1.155v-.678l-.923 1.008v-2.228h-.463ZM17.925 6.075H6.075v11.85h11.85V6.075Zm-.75 11.1H6.825V6.825h10.35v10.35ZM18.75 3H21v18h-2.25V3ZM3 3h2.25v18H3V3Z" fill="#fff"/><path d="M10.334 9.015a.781.781 0 1 0 0-1.563.781.781 0 0 0 0 1.563ZM8.875 13.006a.293.293 0 0 0 .293-.293v-2.246h.195v6.017a.39.39 0 0 0 .782 0v-3.478h.293v3.478a.39.39 0 0 0 .782 0v-6.017h.195v2.246a.293.293 0 0 0 .586 0v-2.637a.781.781 0 0 0-.781-.781H9.363a.781.781 0 0 0-.781.781v2.637c0 .162.131.293.293.293Z" fill="#fff"/></g><defs><clipPath id="a"><path fill="#fff" d="M0 0h24v24H0z"/></clipPath></defs></svg>
